.icons/oomox-ad/48x48/apps/eric.svg

<svg xmlns="http://www.w3.org/2000/svg" width="48" height="48" version="1">
 <path fill="#ffc851" d="m34 14v5c0 2.77-2.23 5-5 5h-10s-5 0-5 5v8.75c0 3.462 3.902 6.25 8.75 6.25h2.5c4.848 0 8.75-2.788 8.75-6.25v-1.75h-10v-2h13.75c3.462 0 6.25-3.902 6.25-8.75v-2.5c0-4.848-2.788-8.75-6.25-8.75h-3.75zm-5 26a1 1 0 0 1 1 1 1 1 0 0 1 -1 1 1 1 0 0 1 -1 -1 1 1 0 0 1 1 -1z"/>
 <path fill="#4795d1" d="m22.75 4c-4.848 0-8.75 2.7875-8.75 6.25v1.75h10v2h-13.75c-3.4625 0-6.25 3.902-6.25 8.75v2.5c0 4.848 2.7875 8.75 6.25 8.75h3.75v-5c0-2.77 2.23-5 5-5h10s5 0 5-5v-8.75c0-3.4625-3.902-6.25-8.75-6.25h-2.5z"/>
 <path opacity=".2" d="m19 7a1 1 0 0 1 1 1 1 1 0 0 1 -1 1 1 1 0 0 1 -1 -1 1 1 0 0 1 1 -1z"/>
 <path fill="#fff" d="m19 6a1 1 0 0 1 1 1 1 1 0 0 1 -1 1 1 1 0 0 1 -1 -1 1 1 0 0 1 1 -1z"/>
 <path fill="#fff" opacity=".1" d="m22.75 4c-4.848 0-8.75 2.7875-8.75 6.25v1c0-3.4625 3.902-6.25 8.75-6.25h2.5c4.848 0 8.75 2.7875 8.75 6.25v-1c0-3.4625-3.902-6.25-8.75-6.25zm-12.5 10c-3.4625 0-6.25 3.902-6.25 8.75v1c0-4.848 2.7875-8.75 6.25-8.75h13.75v-1h-10z"/>
 <path fill="#fff" opacity=".1" d="m34 14v1h3.75c3.462 0 6.25 3.902 6.25 8.75v-1c0-4.848-2.788-8.75-6.25-8.75h-3.75zm0 5c0 2.77-2.23 5-5 5h-10s-5 0-5 5v1c0-5 5-5 5-5h10c2.77 0 5-2.23 5-5v-1zm-10 17v1h10v-1h-10zm4.135 5.5a1 1 0 0 0 -0.135 0.5 1 1 0 0 0 1 1 1 1 0 0 0 1 -1 1 1 0 0 0 -0.135 -0.5 1 1 0 0 1 -0.865 0.5 1 1 0 0 1 -0.865 -0.5z"/>
 <path opacity=".2" d="m14 12v1h10v-1zm20 7c0 5-5 5-5 5h-10c-2.77 0-5 2.23-5 5v1c0-2.77 2.23-5 5-5h10s5 0 5-5zm-30 6.25v1c0 4.848 2.7875 8.75 6.25 8.75h3.75v-1h-3.75c-3.4625 0-6.25-3.902-6.25-8.75z"/>
 <path opacity=".2" d="m44 25.25c0 4.848-2.788 8.75-6.25 8.75h-13.75v1h13.75c3.462 0 6.25-3.902 6.25-8.75zm-30 12.5v1c0 3.4625 3.9025 6.25 8.75 6.25h2.5c4.848 0 8.75-2.788 8.75-6.25v-1c0 3.462-3.902 6.25-8.75 6.25h-2.5c-4.848 0-8.75-2.788-8.75-6.25z"/>
 <circle opacity=".2" cx="36" cy="37" r="11"/>
 <circle fill="#cc5e55" cx="36" cy="36" r="11"/>
 <path fill="#fff" d="m34.488 29.999-0.13345 1.5804a4.7567 4.7143 0 0 0 -1.3902 0.79689l-1.4493-0.67635-1.5135 2.5982 1.3159 0.9057a4.7567 4.7143 0 0 0 -0.07265 0.7952 4.7567 4.7143 0 0 0 0.06922 0.79855l-1.314 0.903 1.5135 2.5982 1.4459-0.67466a4.7567 4.7143 0 0 0 1.393 0.792l0.133 1.584h3.027l0.13344-1.5804a4.7567 4.7143 0 0 0 1.3902 -0.79688l1.4493 0.67634 1.5135-2.5982-1.3159-0.9057a4.7567 4.7143 0 0 0 0.07265 -0.79519 4.7567 4.7143 0 0 0 -0.06922 -0.79855l1.313-0.901-1.5135-2.5982-1.446 0.67467a4.7567 4.7143 0 0 0 -1.393 -0.792l-0.13344-1.5837h-3.027zm1.5135 4.2857a1.7297 1.7143 0 0 1 1.7297 1.7143 1.7297 1.7143 0 0 1 -1.7297 1.7143 1.7297 1.7143 0 0 1 -1.7297 -1.7143 1.7297 1.7143 0 0 1 1.7297 -1.7143z"/>
</svg>

<svg xmlns="http://www.w3.org/2000/svg" width="48" height="48" version="1">
 <path style="fill:#ffa923" d="m 34,14 v 5 c 0,2.77 -2.23,5 -5,5 H 19 c 0,0 -5,0 -5,5 v 8.75 c 0,3.462 3.902,6.25 8.75,6.25 h 2.5 C 30.098,44 34,41.212 34,37.75 V 36 H 24 V 34 H 37.75 C 41.212,34 44,30.098 44,25.25 v -2.5 C 44,17.902 41.212,14 37.75,14 Z"/>
 <path style="opacity:0.2" d="m 29,41 a 1,1 0 0 1 1,1 1,1 0 0 1 -1,1 1,1 0 0 1 -1,-1 1,1 0 0 1 1,-1 z"/>
 <path style="fill:#ffffff" d="m 29,40 a 1,1 0 0 1 1,1 1,1 0 0 1 -1,1 1,1 0 0 1 -1,-1 1,1 0 0 1 1,-1 z"/>
 <path style="fill:#3084e0" d="M 22.75,4 C 17.902,4 14,6.7875 14,10.25 V 12 h 10 v 2 H 10.25 C 6.7875,14 4,17.902 4,22.75 v 2.5 C 4,30.098 6.7875,34 10.25,34 H 14 v -5 c 0,-2.77 2.23,-5 5,-5 h 10 c 0,0 5,0 5,-5 V 10.25 C 34,6.7875 30.098,4 25.25,4 Z"/>
 <path style="opacity:0.2" d="M 19,7 A 1,1 0 0 1 20,8 1,1 0 0 1 19,9 1,1 0 0 1 18,8 1,1 0 0 1 19,7 Z"/>
 <path style="fill:#ffffff" d="M 19,6 A 1,1 0 0 1 20,7 1,1 0 0 1 19,8 1,1 0 0 1 18,7 1,1 0 0 1 19,6 Z"/>
 <path style="opacity:0.2;fill:#ffffff" d="M 22.75,4 C 17.902,4 14,6.7875 14,10.25 v 1 C 14,7.7875 17.902,5 22.75,5 h 2.5 C 30.098,5 34,7.7875 34,11.25 v -1 C 34,6.7875 30.098,4 25.25,4 Z M 10.25,14 C 6.7875,14 4,17.902 4,22.75 v 1 C 4,18.902 6.7875,15 10.25,15 H 24 V 14 H 14 Z"/>
 <path style="opacity:0.2;fill:#ffffff" d="m 34,14 v 1 h 3.75 c 3.462,0 6.25,3.902 6.25,8.75 v -1 C 44,17.902 41.212,14 37.75,14 Z M 24,36 v 1 h 10 v -1 z"/>
 <path style="opacity:0.2" d="m 14,12 v 1 h 10 v -1 z m 20,7 c 0,5 -5,5 -5,5 H 19 c -2.77,0 -5,2.23 -5,5 v 1 c 0,-2.77 2.23,-5 5,-5 h 10 c 0,0 5,0 5,-5 z M 4,25.25 v 1 C 4,31.098 6.7875,35 10.25,35 H 14 V 34 H 10.25 C 6.7875,34 4,30.098 4,25.25 Z"/>
 <path style="opacity:0.2" d="M 44,25.25 C 44,30.098 41.212,34 37.75,34 H 24 v 1 H 37.75 C 41.212,35 44,31.098 44,26.25 Z m -30,12.5 v 1 c 0,3.4625 3.9025,6.25 8.75,6.25 h 2.5 C 30.098,45 34,42.212 34,38.75 v -1 C 34,41.212 30.098,44 25.25,44 h -2.5 C 17.902,44 14,41.212 14,37.75 Z"/>
 <circle opacity=".2" cx="36" cy="37" r="11"/>
 <circle style="fill:#dc5145" cx="36" cy="36" r="11"/>
 <path fill="#fff" d="m34.488 29.999-0.13345 1.5804a4.7567 4.7143 0 0 0 -1.3902 0.79689l-1.4493-0.67635-1.5135 2.5982 1.3159 0.9057a4.7567 4.7143 0 0 0 -0.07265 0.7952 4.7567 4.7143 0 0 0 0.06922 0.79855l-1.314 0.903 1.5135 2.5982 1.4459-0.67466a4.7567 4.7143 0 0 0 1.393 0.792l0.133 1.584h3.027l0.13344-1.5804a4.7567 4.7143 0 0 0 1.3902 -0.79688l1.4493 0.67634 1.5135-2.5982-1.3159-0.9057a4.7567 4.7143 0 0 0 0.07265 -0.79519 4.7567 4.7143 0 0 0 -0.06922 -0.79855l1.313-0.901-1.5135-2.5982-1.446 0.67467a4.7567 4.7143 0 0 0 -1.393 -0.792l-0.13344-1.5837h-3.027zm1.5135 4.2857a1.7297 1.7143 0 0 1 1.7297 1.7143 1.7297 1.7143 0 0 1 -1.7297 1.7143 1.7297 1.7143 0 0 1 -1.7297 -1.7143 1.7297 1.7143 0 0 1 1.7297 -1.7143z"/>
</svg>
